X:454
T:Reel 454
M:4/4
K:Gmaj
L:1/8
gbd'b gdBg|egfg e>d (3cBA |g>g (3gfg b>g (3gfg |eaaf gfg2|g>G (3GGG b>g (3ggg |fgag fgaf|d'bc'd'  (3bag fa|gfdB AGG2|c'>a (3bag f>g (3gfg |e>a (3aga b>g (3gfg |a>g (3gfg d'>d' (3d'c'd' |c'ad'e' d'bc'a|a>a (3aga g>d (3gfg |c'>d' (3d'e'd' abc'd'| (3bc'd' c'a bgag|edef gbagf|
